X:21039 
T:DAIRY MAID, The  
B:DMI.0292
Z:Nordberg/Black
R:jig
%Q:1/4=160
M:6/8
L:1/8
K:G
A/G/|FDD FEF|DGG G2A|BAB GBd|cAG F2A|
BAB Bcd|cBc ABc|dfd cAF|AGG G2:|
d|gfe fdc|BGG G2g|fef dfd|cAG F2c|
BAB Bcd|cBc ABc|dfd cAF|AGG G2:|

%%%

